icons/desktop/16/svg/search-in-circle-16.svg

<svg width="16" height="16" viewBox="0 0 16 16" fill="none" xmlns="http://www.w3.org/2000/svg">
<path d="M7.375 4.87402C7.94178 4.87402 8.47601 5.09537 8.87695 5.49707C9.27773 5.89785 9.49975 6.43237 9.5 6.99902C9.5 7.56591 9.2788 8.10098 8.87695 8.50195C8.074 9.3046 6.67503 9.30459 5.87207 8.50195C5.47122 8.10098 5.24902 7.56591 5.24902 6.99902C5.24927 6.43237 5.47029 5.89785 5.87207 5.49707C6.27402 5.09637 6.80823 4.87402 7.375 4.87402Z" fill="black"/>
<path fill-rule="evenodd" clip-rule="evenodd" d="M8 0C12.4183 0 16 3.58172 16 8C16 12.4183 12.4183 16 8 16C3.58172 16 0 12.4183 0 8C0 3.58172 3.58172 0 8 0ZM9.76074 4.61328C8.48682 3.33891 6.26318 3.33891 4.98926 4.61328C4.35148 5.25006 4.00024 6.09837 4 6.99902C4 7.89991 4.35141 8.74877 4.98926 9.38574C5.62623 10.0236 6.47412 10.374 7.375 10.374C7.97103 10.374 8.54297 10.2193 9.04688 9.93066L10.9326 11.8164C11.0546 11.9384 11.215 11.999 11.375 11.999C11.535 11.999 11.6954 11.9384 11.8174 11.8164C12.0608 11.5725 12.0609 11.1765 11.8174 10.9326L10.001 9.11719C10.4856 8.51914 10.75 7.77903 10.75 6.99902C10.7498 6.09837 10.3985 5.25006 9.76074 4.61328Z" fill="black"/>
</svg>

<!-- This Source Code Form is subject to the terms of the Mozilla Public
   - License, v. 2.0. If a copy of the MPL was not distributed with this
   - file, You can obtain one at http://mozilla.org/MPL/2.0/. -->
<svg xmlns="http://www.w3.org/2000/svg" width="16" height="16" fill="context-fill" fill-opacity="context-fill-opacity" viewBox="0 0 16 16">
    <path d="M7.375 4.874a2.1 2.1 0 0 1 1.502.623c.4.4.623.935.623 1.502s-.221 1.102-.623 1.503c-.803.803-2.202.803-3.005 0a2.12 2.12 0 0 1-.623-1.503c0-.567.221-1.101.623-1.502.402-.4.936-.623 1.503-.623" />
    <path fill-rule="evenodd" d="M8 0a8 8 0 1 1 0 16A8 8 0 0 1 8 0m1.76 4.613c-1.273-1.274-3.497-1.274-4.77 0A3.35 3.35 0 0 0 4 7c0 .9.351 1.75.99 2.387a3.35 3.35 0 0 0 2.385.988c.596 0 1.168-.155 1.672-.443l1.886 1.885a.624.624 0 0 0 .884 0 .626.626 0 0 0 0-.883l-1.816-1.816A3.35 3.35 0 0 0 10.75 7c0-.9-.351-1.749-.99-2.386" clip-rule="evenodd" />
</svg>
